svg/LeftHanded/cell.svg

<?xml version="1.0" encoding="UTF-8" standalone="no"?>
<!-- Created with Inkscape (http://www.inkscape.org/) -->

<svg
   xmlns:dc="http://purl.org/dc/elements/1.1/"
   xmlns:cc="http://creativecommons.org/ns#"
   xmlns:rdf="http://www.w3.org/1999/02/22-rdf-syntax-ns#"
   xmlns:svg="http://www.w3.org/2000/svg"
   xmlns="http://www.w3.org/2000/svg"
   xmlns:xlink="http://www.w3.org/1999/xlink"
   version="1.0"
   width="500"
   height="500"
   viewBox="0 0 1000 1000"
   id="page"
   xml:space="preserve"><metadata
     id="metadata11"><rdf:RDF><cc:Work
         rdf:about=""><dc:format>image/svg+xml</dc:format><dc:type
           rdf:resource="http://purl.org/dc/dcmitype/StillImage" /><dc:title></dc:title></cc:Work></rdf:RDF></metadata><defs
     id="defs38"><linearGradient
       id="linearGradient2218"><stop
         id="stop2220"
         style="stop-color:#999999;stop-opacity:1"
         offset="0" /><stop
         id="stop2222"
         style="stop-color:#555555;stop-opacity:1"
         offset="1" /></linearGradient><linearGradient
       x1="274"
       y1="129.785"
       x2="274"
       y2="581.78497"
       id="linearGradient3385"
       xlink:href="#linearGradient2218"
       gradientUnits="userSpaceOnUse" /><linearGradient
       x1="274"
       y1="129.785"
       x2="274"
       y2="581.78497"
       id="linearGradient3385-4"
       xlink:href="#linearGradient2218-7"
       gradientUnits="userSpaceOnUse" /><linearGradient
       id="linearGradient2218-7"><stop
         id="stop2220-5"
         style="stop-color:#999999;stop-opacity:1"
         offset="0" /><stop
         id="stop2222-4"
         style="stop-color:#555555;stop-opacity:1"
         offset="1" /></linearGradient><filter
       x="-0.24000002"
       y="-0.23999998"
       width="1.48"
       height="1.48"
       color-interpolation-filters="sRGB"
       id="filter3790"><feGaussianBlur
         id="feGaussianBlur3792"
         stdDeviation="43.199996" /></filter></defs><path
     d="m 879.12828,800.64236 c 0,12.729 -5e-4,72.5 -5e-4,90.5 0,72 9,72 54,72 36,0 54,0 54,-72 0,-18.001 10e-4,-64.545 5e-4,-90 12.7295,0 72.00042,0 90.00042,0 72,0 72,-9 72,-54 0,-36 0,-54 -72,-54 -18.001,0 -64.5449,-0.001 -89.99992,0 0,-12.729 0,-72 0,-90 0,-72 -9,-72 -54,-72 -36,0 -54,0 -54,72 0,18 -10e-4,64.545 0,89.5 -12.729,-0.5 -72,-0.5 -90,-0.5 -72,0 -72,9 -72,54 0,36 0,54 72,54 18.001,0 64.5445,0.501 89.9995,0.5 z"
     transform="matrix(1.2,0,0,1.2,-619.75449,-420.78583)"
     id="path1438-8"
     style="opacity:0.15;fill:#111111;fill-opacity:1;stroke:none;filter:url(#filter3790)" /><path
     d="m 445.9995,409.285 c 0,12.729 -5e-4,72.5 -5e-4,90.5 0,72 9,72 54,72 36,0 54,0 54,-72 0,-18.001 10e-4,-64.545 5e-4,-90 12.7295,0 72.0005,0 90.0005,0 72,0 72,-9 72,-54 0,-36 0,-54 -72,-54 -18.001,0 -64.545,-0.001 -90,0 0,-12.729 0,-72 0,-90 0,-72 -9,-72 -54,-72 -36,0 -54,0 -54,72 0,18 -10e-4,64.545 0,89.5 -12.729,-0.5 -72,-0.5 -90,-0.5 -72,0 -72,9 -72,54 0,36 0,54 72,54 18.001,0 64.5445,0.501 89.9995,0.5 z"
     id="path1438"
     style="opacity:0.75;fill:url(#linearGradient3385);fill-opacity:1;stroke:#000000;stroke-width:20;stroke-linecap:round;stroke-linejoin:round;stroke-miterlimit:1" /></svg>

<?xml version="1.0" encoding="UTF-8" standalone="no"?>
<!-- Created with Inkscape (http://www.inkscape.org/) -->
<svg
   xmlns:svg="http://www.w3.org/2000/svg"
   xmlns="http://www.w3.org/2000/svg"
   xmlns:xlink="http://www.w3.org/1999/xlink"
   version="1.0"
   width="500"
   height="500"
   viewBox="0 0 1000 1000"
   id="page"
   xml:space="preserve"><defs
     id="defs38"><linearGradient
       id="linearGradient2218"><stop
         id="stop2220"
         style="stop-color:#999999;stop-opacity:1"
         offset="0" /><stop
         id="stop2222"
         style="stop-color:#555555;stop-opacity:1"
         offset="1" /></linearGradient><linearGradient
       x1="274"
       y1="129.785"
       x2="274"
       y2="581.78497"
       id="linearGradient3385"
       xlink:href="#linearGradient2218"
       gradientUnits="userSpaceOnUse" /></defs><path
     d="M 445.9995,409.285 C 445.9995,422.014 445.999,481.785 445.999,499.785 C 445.999,571.785 454.999,571.785 499.999,571.785 C 535.999,571.785 553.999,571.785 553.999,499.785 C 553.999,481.784 554,435.24 553.9995,409.785 C 566.729,409.785 626,409.785 644,409.785 C 716,409.785 716,400.785 716,355.785 C 716,319.785 716,301.785 644,301.785 C 625.999,301.785 579.455,301.784 554,301.785 C 554,289.056 554,229.785 554,211.785 C 554,139.785 545,139.785 500,139.785 C 464,139.785 446,139.785 446,211.785 C 446,229.785 445.999,276.33 446,301.285 C 433.271,300.785 374,300.785 356,300.785 C 284,300.785 284,309.785 284,354.785 C 284,390.785 284,408.785 356,408.785 C 374.001,408.785 420.5445,409.286 445.9995,409.285 z"
     id="path1438"
     style="fill:url(#linearGradient3385);fill-opacity:1;stroke:#000000;stroke-width:20;stroke-linecap:round;stroke-linejoin:round;stroke-miterlimit:1" /></svg>
